!!!!SEGMENT: pl-stab--27c--001-007_nowakiewicz-kazimierz--missa-in-b-pleni-sunt.krn
!!!cenid: 18xx:3456
!!!COM: Nowakiewicz, Kazimierz
!!!COM-rismID: pe30020309
!!!CDT: <1800->1824
!!!CNT: Polish
!!!OPR: Missa in B
!!!OTL: Pleni sunt
!!!OMV: 007
!!!PDT:
!!!AGN:
!!!SMS-siglum: PL-STAb
!!!SMS-shelfmark: 27c
!!!SMS-shelfwork: 001-007 M
!!!SMS-variant:
!!!SMS-altvar:
!!!NIFC-rismSourceID: 301050705
!!!NIFC-islandoraID: pl-stab:3750
!!!URL-pdf-islandora: https://repozytorium.nifc.pl/islandora/object/pl-stab%3A3750/datastream/PDF/view
!!!URL-scan: https://polish.musicsources.pl/pl/lokalizacje/galeria/rekopisy/4473 @EN{Scan on Polish Music Herritage in Open Access Website} @PL{Skany w portalu Dziedzictwo Muzyki Polskiej w otwartym dostępie}
!!!ONB-nifc: UWAGA: części Mszy: 1. Kyrie, 2. Gloria, 3. Credo, 4. Et incarnatus, 5. Et resurrexit, 6. Sanctus, 7. Pleni sunt, 8. Benedictus, 9. Agnus Dei, 10. Dona nobis
!!!AIN: 1 alto 1 bass 2 clars 2 cor 1 organ 1 soprn 1 tenor 2 violn
!!!key: B
**kern	**fba	**kern	**kern	**kern	**text	**kern	**text	**kern	**text	**kern	**text	**kern	**kern	**dynam	**kern	**kern
*part11	*part11	*part10	*part9	*part8	*part8	*part7	*part7	*part6	*part6	*part5	*part5	*part4	*part3	*part3	*part2	*part1
*staff11	*	*staff10	*staff9	*staff8	*staff8	*staff7	*staff7	*staff6	*staff6	*staff5	*staff5	*staff4	*staff3	*	*staff2	*staff1
*IGcont	*	*	*	*IGcoro	*	*IGcoro	*	*IGcoro	*	*IGcoro	*	*	*	*	*	*
*ICklav	*	*ICstr	*ICstr	*ICvox	*	*ICvox	*	*ICvox	*	*ICvox	*	*ICbrass	*ICbrass	*	*ICww	*ICww
*Iorgan	*	*Ivioln	*Ivioln	*Ibass	*	*Itenor	*	*Ialto	*	*Isoprn	*	*Icor	*Icor	*	*Iclars	*Iclars
*I"Organo	*	*I"Violino Secundo	*I"Violino Primo	*I"Baſso	*	*I"Tenore	*	*I"Alto	*	*I"Canto	*	*I"Cornu Secundo in B.	*I"Cornu Primo in B.	*	*I"Clarinetto 2do in B.	*I"Clarinetto Primo in B.
*I'org	*	*I'vl 2	*I'vl 1	*I'B	*	*I'T	*	*I'A	*	*I'S	*	*I'cor 2 in Bb	*I'cor 1 in Bb	*	*I'cl 2	*I'cl 1
*clefF4	*	*clefG2	*clefG2	*clefF4	*	*clefC4	*	*clefC3	*	*clefC1	*	*clefG2	*clefG2	*	*clefG2	*clefG2
*	*	*	*	*	*	*	*	*	*	*	*	*ITrd1c2	*ITrd1c2	*	*ITrd1c2	*ITrd1c2
*k[e-b-]	*	*k[b-e-]	*k[b-e-]	*k[b-e-]	*	*k[e-b-]	*	*k[e-b-]	*	*k[b-e-]	*	*k[b-e-]	*k[b-e-]	*	*k[b-e-]	*k[b-e-]
*B:	*	*B:	*B:	*B:	*	*B:	*	*B:	*	*B:	*	*B:	*B:	*	*B:	*B:
*M4/4	*	*M4/4	*M4/4	*M4/4	*	*M4/4	*	*M4/4	*	*M4/4	*	*M4/4	*M4/4	*	*M4/4	*M4/4
*met(c)	*	*met(c)	*met(c)	*met(c)	*	*met(c)	*	*met(c)	*	*met(c)	*	*met(c)	*met(c)	*	*met(c)	*met(c)
*2\right	*	*2\right	*2\right	*2\right	*	*2\right	*	*2\right	*	*2\right	*	*2\right	*2\right	*	*2\right	*2\right
=1	=1	=1	=1	=1	=1	=1	=1	=1	=1	=1	=1	=1	=1	=1	=1	=1
*	*	*tremolo	*	*	*	*	*	*	*	*	*	*	*	*	*	*
!LO:TX:a:t=allo:rj	!	!LO:TX:a:t=allo:rj	!LO:TX:a:t=allo:rj	!LO:TX:a:t=allo:rj	!	!LO:TX:a:t=allo:rj	!	!	!	!LO:TX:a:t=allo:rj	!	!LO:TX:a:t=allo:rj	!LO:TX:a:t=allo:rj	!LO:DY:a:t=for	!LO:TX:a:t=allo:rj	!LO:TX:a:t=allo:rj
4B-\	.	16d/LL 16b-	4b-\	4B-\	Ple-	4d\	Ple-	4f\	Ple-	4b-\	Ple-	4d/	4b-\	f	4b-\	4dd\
.	.	16d/ 16b-	.	.	.	.	.	.	.	.	.	.	.	.	.	.
.	.	16d/ 16b-	.	.	.	.	.	.	.	.	.	.	.	.	.	.
.	.	16d/JJ 16b-	.	.	.	.	.	.	.	.	.	.	.	.	.	.
.	.	.	16qqdd/	.	.	.	.	.	.	.	.	.	.	.	.	.
4F\	5 3	16f/LL 16a	8cc\L	8F\	-ni	8c\	-ni	8f\	-ni	8cc\	-ni	4f/	4cc\	.	4a\	4cc\
.	.	16f/ 16a	.	.	.	.	.	.	.	.	.	.	.	.	.	.
.	.	16f/ 16a	16b-\L	8F\	sunt	8c\	sunt	8f\	sunt	8cc\	sunt	.	.	.	.	.
.	.	16f/JJ 16a	16cc\JJ	.	.	.	.	.	.	.	.	.	.	.	.	.
!	!	!	!	!	!	!	!	!	!	!	!	!	!	!	!	!
4B-\	.	16f/LL 16b-	4dd\	4B-\	Ce-	4B-\	ce-	2f\	ce-	4dd\	ce-	4b-\	4dd\	.	4b-\	4dd\
.	.	16f/ 16b-	.	.	.	.	.	.	.	.	.	.	.	.	.	.
.	.	16f/ 16b-	.	.	.	.	.	.	.	.	.	.	.	.	.	.
.	.	16f/JJ 16b-	.	.	.	.	.	.	.	.	.	.	.	.	.	.
.	.	.	16qqff/	.	.	.	.	.	.	.	.	.	.	.	.	.
4F\	7 5	16cc\LL	8ee-\L	4F\	.	4c\	.	.	.	4ee-\	.	4f/	4ee-\	.	4cc\	4ee-\
.	.	16cc\	.	.	.	.	.	.	.	.	.	.	.	.	.	.
.	.	16cc\	16dd\L	.	.	.	.	.	.	.	.	.	.	.	.	.
.	.	16cc\JJ	16ee-\JJ	.	.	.	.	.	.	.	.	.	.	.	.	.
*	*	*Xtremolo	*	*	*	*	*	*	*	*	*	*	*	*	*	*
=2	=2	=2	=2	=2	=2	=2	=2	=2	=2	=2	=2	=2	=2	=2	=2	=2
4BB-/	.	4d/ 4b-	4dd\	4BB-/	-li	4B-\	-li	4f\	-li	4dd\	-li	4b-\	4dd\	.	4b-\	4dd\
4r	.	8g/L	8bb-\L	4r	.	4r	.	4r	.	4r	.	4r	4r	.	4r	4r
.	.	16f/L	16aa\L	.	.	.	.	.	.	.	.	.	.	.	.	.
.	.	16e-/JJ	16gg\JJ	.	.	.	.	.	.	.	.	.	.	.	.	.
2r	.	4d/	4ff\	2r	.	2r	.	2r	.	2r	.	2r	2r	.	2r	2r
.	.	.	16qqaa/	.	.	.	.	.	.	.	.	.	.	.	.	.
.	.	8e-/L	8gg\L	.	.	.	.	.	.	.	.	.	.	.	.	.
.	.	16d/L	16ff\L	.	.	.	.	.	.	.	.	.	.	.	.	.
.	.	16c/JJ	16ee-\JJ	.	.	.	.	.	.	.	.	.	.	.	.	.
=3	=3	=3	=3	=3	=3	=3	=3	=3	=3	=3	=3	=3	=3	=3	=3	=3
!	!	!	!	!	!	!	!	!	!	!	!	!	!	!	!	!
4BB-/	.	4f/	4dd\	4B-\	et	2B-\	et	4f\	et	4dd\	et	2b-\	4dd\	.	4dd\	4ff\
.	.	.	16qqff/	.	.	.	.	.	.	.	.	.	.	.	.	.
4E-\	x 6	8g/L	8ee-\L	4E-\	ter-	.	.	4g\	ter-	4ee-\	.	.	4ee-\	.	8ee-\L	8gg\L
.	.	16f/L	16dd\L	.	.	.	.	.	.	.	.	.	.	.	8cc\J	8ee-\J
.	.	16e-/JJ	16cc\JJ	.	.	.	.	.	.	.	.	.	.	.	.	.
!	!	!	!	!	!	!	!	!	!	!	!	!	!	!	!	!
4F\	.	4d/	4b-\	2F\	.	4B-\	ter-	2f\	.	4dd\	ter-	4b-\	4dd\	.	4b-\	4dd\
.	.	.	16qqdd/	.	.	.	.	.	.	.	.	.	.	.	.	.
4FF/	.	8e-/L	8cc\L	.	.	4c\	.	.	.	4cc\	.	4f/	4cc\	.	8cc\L	8ee-\L
.	.	16d/L	16b-\L	.	.	.	.	.	.	.	.	.	.	.	8a\J	8cc\J
.	.	16c/JJ	16a\JJ	.	.	.	.	.	.	.	.	.	.	.	.	.
=4	=4	=4	=4	=4	=4	=4	=4	=4	=4	=4	=4	=4	=4	=4	=4	=4
4BB-/	.	4d/ 4b-	4b-\	4BB-/	-ra	4d\	-ra	4f\	-ra	4b-\	-ra	4d/	4b-\	.	4b-\	4dd\
4r	.	8g/L	8bb-\L	4r	.	4r	.	4r	.	4r	.	4r	4r	.	4r	4r
.	.	16f/L	16aa\L	.	.	.	.	.	.	.	.	.	.	.	.	.
.	.	16e-/JJ	16gg\JJ	.	.	.	.	.	.	.	.	.	.	.	.	.
2r	.	4d/	4ff\	2r	.	2r	.	2r	.	2r	.	2r	2r	.	2r	2r
.	.	.	16qqaa/	.	.	.	.	.	.	.	.	.	.	.	.	.
.	.	8e-/L	8gg\L	.	.	.	.	.	.	.	.	.	.	.	.	.
.	.	16d/L	16ff\L	.	.	.	.	.	.	.	.	.	.	.	.	.
.	.	16c/JJ	16ee-\JJ	.	.	.	.	.	.	.	.	.	.	.	.	.
=5	=5	=5	=5	=5	=5	=5	=5	=5	=5	=5	=5	=5	=5	=5	=5	=5
*	*	*	*	*	*ij	*	*ij	*	*ij	*	*ij	*	*	*	*	*
!	!	!	!LO:LB:g=original	!	!	!	!	!	!	!	!	!	!	!	!	!
4B-\	.	4f/	4dd\	4B-\	et	2B-\	et	4f\	et	4dd\	et	2b-\	4dd\	.	4dd\	4ff\
.	.	.	16qqff/	.	.	.	.	.	.	.	.	.	.	.	.	.
4E-\	x 6	8g/L	8ee-\L	4E-\	ter-	.	.	4g\	ter-	4ee-\	.	.	4ee-\	.	8ee-\L	8gg\L
.	.	16f/L	16dd\L	.	.	.	.	.	.	.	.	.	.	.	8cc\J	8ee-\J
.	.	16e-/JJ	16cc\JJ	.	.	.	.	.	.	.	.	.	.	.	.	.
!	!	!LO:LB:g=original	!	!	!	!	!	!	!	!	!	!	!	!	!	!
4F\	x 4	4d/	4b-\	2F\	.	4B-\	ter-	2f\	.	4dd\	ter-	4b-\	4dd\	.	4b-\	4dd\
.	.	.	16qqdd/	.	.	.	.	.	.	.	.	.	.	.	.	.
4FF/	x 3	8e-/L	8cc\L	.	.	4c\	.	.	.	4cc\	.	4f/	4cc\	.	4a\	4cc\
.	.	16d/L	16b-\L	.	.	.	.	.	.	.	.	.	.	.	.	.
.	.	16c/JJ	16a\JJ	.	.	.	.	.	.	.	.	.	.	.	.	.
=6	=6	=6	=6	=6	=6	=6	=6	=6	=6	=6	=6	=6	=6	=6	=6	=6
!	!	!	!	!	!	!	!	!	!	!	!	!	!LO:LB:g=original	!	!	!
4BB-/	.	4d/	8b-\L	4BB-/	-ra	4d\	-ra	4f\	-ra	4b-\	-ra	4d/	4b-\	.	4b-\	4b-\
*	*	*	*	*	*Xij	*	*Xij	*	*Xij	*	*Xij	*	*	*	*	*
.	.	.	16cc\L	.	.	.	.	.	.	.	.	.	.	.	.	.
.	.	.	16dd\JJ	.	.	.	.	.	.	.	.	.	.	.	.	.
4r	.	4r	16ee-\LL	4r	.	4r	.	4r	.	4r	.	4r	4r	.	4r	4r
.	.	.	16ff\	.	.	.	.	.	.	.	.	.	.	.	.	.
.	.	.	16gg\	.	.	.	.	.	.	.	.	.	.	.	.	.
.	.	.	16aa\JJ	.	.	.	.	.	.	.	.	.	.	.	.	.
2r	.	2r	8bb-\L	2r	.	2r	.	2r	.	2r	.	2r	2r	.	2r	2r
.	.	.	8ff\J	.	.	.	.	.	.	.	.	.	.	.	.	.
.	.	.	8dd\L	.	.	.	.	.	.	.	.	.	.	.	.	.
.	.	.	8b-\J	.	.	.	.	.	.	.	.	.	.	.	.	.
=7	=7	=7	=7	=7	=7	=7	=7	=7	=7	=7	=7	=7	=7	=7	=7	=7
*	*	*tremolo	*	*	*	*	*	*	*	*	*	*	*	*	*	*
!	!	!	!	!LO:LB:g=original	!	!LO:LB:g=original	!	!	!	!	!	!LO:TX:t=P:problem=tu brak tt. 7-9	!	!	!	!
8F\L	.	16f/LL	4f/ 4a	4e-\	Glo-	4c\	glo-	4f\	glo-	4a\	glo-	1ryy	4f/	.	4cc\	1ff
.	.	16f/	.	.	.	.	.	.	.	.	.	.	.	.	.	.
8e-\	x 2	16f/	.	.	.	.	.	.	.	.	.	.	.	.	.	.
.	.	16f/	.	.	.	.	.	.	.	.	.	.	.	.	.	.
!	!	!	!	!	!	!	!	!LO:LB:g=original	!	!	!	!	!	!	!	!
8d\	x 6	16f/	4f/ 4b-	8B-\	-ri-	4B-\	-ri-	8f\	-ri-	8b-\	-ri-	.	4b-\	.	4dd\	.
.	.	16f/	.	.	.	.	.	.	.	.	.	.	.	.	.	.
8D\J	.	16f/	.	8B-\	-a	.	.	8f\	-a	8b-\	-a	.	.	.	.	.
.	.	16f/JJ	.	.	.	.	.	.	.	.	.	.	.	.	.	.
!LO:TX:t=P:problem=mixed beam	!	!	!	!	!	!	!	!	!	!	!	!	!	!	!	!
8C/L	x 6	16f/LL	4f/ 4ee-	4c\	tu-	4A\	-a	2f\	tu-	4ee-\	tu-	.	4cc\	.	4ee-\	.
.	.	16f/	.	.	.	.	.	.	.	.	.	.	.	.	.	.
8c\	.	16f/	.	.	.	.	.	.	.	.	.	.	.	.	.	.
.	.	16f/	.	.	.	.	.	.	.	.	.	.	.	.	.	.
8BB-/	.	16f/	4f/ 4dd	4B-\	.	4B-\	tu-	.	.	4dd\	-a	.	4dd\	.	4dd\	.
.	.	16f/	.	.	.	.	.	.	.	.	.	.	.	.	.	.
8B-\J	.	16f/	.	.	.	.	.	.	.	.	.	.	.	.	.	.
.	.	16f/JJ	.	.	.	.	.	.	.	.	.	.	.	.	.	.
=8	=8	=8	=8	=8	=8	=8	=8	=8	=8	=8	=8	=8	=8	=8	=8	=8
!LO:LB:g=original	!	!	!	!	!	!	!	!	!	!LO:LB:g=original	!	!	!	!	!LO:LB:g=original	!
4AA/	.	16f/LL	4f/ 4cc	4A\	.	4c\	.	4f\	-a	4cc\	glo-	1ryy	4cc\	.	4cc\	2.ff\
.	.	16f/	.	.	.	.	.	.	.	.	.	.	.	.	.	.
.	.	16f/	.	.	.	.	.	.	.	.	.	.	.	.	.	.
.	.	16f/	.	.	.	.	.	.	.	.	.	.	.	.	.	.
4F\	x n	16f/	16ff\LL	4F\	.	4A\	.	4r	.	8ee-\	-ri-	.	4cc\	.	4ee-\	.
.	.	16f/	16ee-\	.	.	.	.	.	.	.	.	.	.	.	.	.
.	.	16f/	16dd\	.	.	.	.	.	.	8ee-\	-a	.	.	.	.	.
.	.	16f/JJ	16ee-\JJ	.	.	.	.	.	.	.	.	.	.	.	.	.
*	*	*	*	*	*	*	*	*	*ij	*	*	*	*	*	*	*
4B-\	.	16f/LL	4dd\	4B-\	.	4B-\	.	2f\	tu-	4dd\	tu-	.	4dd\	.	4dd\	.
.	.	16f/	.	.	.	.	.	.	.	.	.	.	.	.	.	.
.	.	16f/	.	.	.	.	.	.	.	.	.	.	.	.	.	.
.	.	16f/	.	.	.	.	.	.	.	.	.	.	.	.	.	.
4e-\	.	16f/	16dd\LL	4E-\	.	4c\	.	.	.	4cc\	.	.	4cc\	.	4cc\	4aa\
.	.	16f/	16cc\	.	.	.	.	.	.	.	.	.	.	.	.	.
.	.	16f/	16b-\	.	.	.	.	.	.	.	.	.	.	.	.	.
.	.	16f/JJ	16cc\JJ	.	.	.	.	.	.	.	.	.	.	.	.	.
*	*	*Xtremolo	*	*	*	*	*	*	*	*	*	*	*	*	*	*
=9	=9	=9	=9	=9	=9	=9	=9	=9	=9	=9	=9	=9	=9	=9	=9	=9
!	!	!	!	!	!	!	!	!	!	!	!	!	!	!	!	!LO:LB:g=original
4d\	.	4f/	8b-\L	4D\	-a	4d\	-a	4f\	-a	4b-\	-a	1ryy	4b-\	.	4b-\	4bb-\
*	*	*	*	*	*	*	*	*	*Xij	*	*	*	*	*	*	*
.	.	.	16cc\L	.	.	.	.	.	.	.	.	.	.	.	.	.
.	.	.	16dd\JJ	.	.	.	.	.	.	.	.	.	.	.	.	.
4r	.	4r	16ee-\LL	4r	.	4r	.	4r	.	4r	.	.	4r	.	4r	4r
.	.	.	16ff\	.	.	.	.	.	.	.	.	.	.	.	.	.
.	.	.	16gg\	.	.	.	.	.	.	.	.	.	.	.	.	.
.	.	.	16aa\JJ	.	.	.	.	.	.	.	.	.	.	.	.	.
!	!	!	!LO:LB:g=original	!	!	!	!	!	!	!	!	!	!	!	!	!
2r	.	2r	8bb-\L	2r	.	2r	.	2r	.	2r	.	.	2r	.	2r	2r
.	.	.	8ff\J	.	.	.	.	.	.	.	.	.	.	.	.	.
.	.	.	8dd\L	.	.	.	.	.	.	.	.	.	.	.	.	.
.	.	.	8b-\J	.	.	.	.	.	.	.	.	.	.	.	.	.
=10	=10	=10	=10	=10	=10	=10	=10	=10	=10	=10	=10	=10	=10	=10	=10	=10
*	*	*tremolo	*	*	*	*	*	*	*	*	*ij	*	*	*	*	*
4e-\	4 2	16f/LL	4f/ 4a	4e-\	Glo-	4c\	glo-	2f\	Ple-	4a\	glo-	4f/	4f/	.	4cc\	1ff
.	.	16f/	.	.	.	.	.	.	.	.	.	.	.	.	.	.
.	.	16f/	.	.	.	.	.	.	.	.	.	.	.	.	.	.
.	.	16f/	.	.	.	.	.	.	.	.	.	.	.	.	.	.
4d\	x 6	16f/	4f/ 4b-	8d\	-ri-	8B-\	-ri-	.	.	8b-\	-ri-	8f/L	8f/L	.	4dd\	.
.	.	16f/	.	.	.	.	.	.	.	.	.	.	.	.	.	.
.	.	16f/	.	8d\	-a	8B-\	-a	.	.	8b-\	-a	8f/J	8f/J	.	.	.
.	.	16f/JJ	.	.	.	.	.	.	.	.	.	.	.	.	.	.
4c\	x 6	16f/LL	4f/ 4ee-	4c\	tu-	4A\	tu-	4f\	-ni	4ee-\	tu-	4f/	4f/	.	4ee-\	.
.	.	16f/	.	.	.	.	.	.	.	.	.	.	.	.	.	.
.	.	16f/	.	.	.	.	.	.	.	.	.	.	.	.	.	.
.	.	16f/	.	.	.	.	.	.	.	.	.	.	.	.	.	.
4B-\	.	16f/	4f/ 4dd	4B-\	-a	4B-\	-a	4f\	sunt	4dd\	-a	4b-\	4b-\	.	4dd\	.
.	.	16f/	.	.	.	.	.	.	.	.	.	.	.	.	.	.
.	.	16f/	.	.	.	.	.	.	.	.	.	.	.	.	.	.
.	.	16f/JJ	.	.	.	.	.	.	.	.	.	.	.	.	.	.
=11	=11	=11	=11	=11	=11	=11	=11	=11	=11	=11	=11	=11	=11	=11	=11	=11
*	*	*	*	*	*ij	*	*ij	*	*	*	*	*	*	*	*	*
4A\	x 6	16f/LL	4f/ 4cc	4A\	glo-	4c\	glo-	1f	Ce-	4cc\	glo-	4f/	4cc\	.	4cc\	1ff
.	.	16f/	.	.	.	.	.	.	.	.	.	.	.	.	.	.
.	.	16f/	.	.	.	.	.	.	.	.	.	.	.	.	.	.
.	.	16f/	.	.	.	.	.	.	.	.	.	.	.	.	.	.
4F\	x n	16f/	16ff\LL	8F\	-ri-	8A\	-ri-	.	.	8ee-\	-ri-	4cc\	4cc\	.	4ee-\	.
.	.	16f/	16ee-\	.	.	.	.	.	.	.	.	.	.	.	.	.
.	.	16f/	16dd\	8F\	-a	8A\	-a	.	.	8ee-\	-a	.	.	.	.	.
.	.	16f/JJ	16ee-\JJ	.	.	.	.	.	.	.	.	.	.	.	.	.
4B-\	.	16f/LL	4dd\	4B-\	tu-	4B-\	tu-	.	.	4dd\	tu-	4b-\	4dd\	.	4dd\	.
.	.	16f/	.	.	.	.	.	.	.	.	.	.	.	.	.	.
.	.	16f/	.	.	.	.	.	.	.	.	.	.	.	.	.	.
.	.	16f/	.	.	.	.	.	.	.	.	.	.	.	.	.	.
4e-\	4 2	16f/	16dd\LL	4E-\	-a	4c\	-a	.	.	4cc\	-a	4f/	4cc\	.	4cc\	.
*	*	*	*	*	*Xij	*	*Xij	*	*	*	*Xij	*	*	*	*	*
.	.	16f/	16cc\	.	.	.	.	.	.	.	.	.	.	.	.	.
.	.	16f/	16b-\	.	.	.	.	.	.	.	.	.	.	.	.	.
.	.	16f/JJ	16cc\JJ	.	.	.	.	.	.	.	.	.	.	.	.	.
=12	=12	=12	=12	=12	=12	=12	=12	=12	=12	=12	=12	=12	=12	=12	=12	=12
!	!	!	!	!LO:LB:g=original	!	!	!	!	!	!	!	!LO:LB:g=original	!	!	!	!
4d\	x 6	16b-\LL	(>8b-\L	4D\	Ple-	4d\	ple-	4f\	-li	4b-\	Ple-	4B-/	4b-\	.	1b-	2bb-\
.	.	16b-\	.	.	.	.	.	.	.	.	.	.	.	.	.	.
.	.	16b-\	8bb-\)	.	.	.	.	.	.	.	.	.	.	.	.	.
.	.	16b-\	.	.	.	.	.	.	.	.	.	.	.	.	.	.
4B-\	.	16b-\	8bb-|\	4D\	-ni	4d\	-ni	4f\	et	4b-\	-ni	8B-/L	8b-\L	.	.	.
.	.	16b-\	.	.	.	.	.	.	.	.	.	.	.	.	.	.
.	.	16b-\	8bb-|\J	.	.	.	.	.	.	.	.	8B-/J	8b-\J	.	.	.
.	.	16b-\JJ	.	.	.	.	.	.	.	.	.	.	.	.	.	.
4D\	x -	16b-\LL	(8b-\L	4D\	sunt	4B-\	.	4f\	ter-	4b-\	sunt	4B-/	4b-\	.	.	2aa-X\
.	.	16b-\	.	.	.	.	.	.	.	.	.	.	.	.	.	.
.	.	16b-\	8aa-X\)	.	.	.	.	.	.	.	.	.	.	.	.	.
.	.	16b-\	.	.	.	.	.	.	.	.	.	.	.	.	.	.
4D\	6 5	16b-\	8aa-|\	4D\	.	4B-\	sunt	4f\	-ra	4b-\	ce-	4B-/	4b-\	.	.	.
.	.	16b-\	.	.	.	.	.	.	.	.	.	.	.	.	.	.
.	.	16b-\	8gg|\J	.	.	.	.	.	.	.	.	.	.	.	.	.
.	.	16b-\JJ	.	.	.	.	.	.	.	.	.	.	.	.	.	.
=13	=13	=13	=13	=13	=13	=13	=13	=13	=13	=13	=13	=13	=13	=13	=13	=13
!	!	!	!LO:TX:t=P:problem=mixed beam	!	!	!	!LO:LB:g=original	!	!	!	!	!	!	!	!	!
4E-\	.	16b-\LL	(8gg\L	2E-\	Ce-	2B-\	Cae-	2g\	glo-	2b-\	.	4B-/	4b-\	.	2b-\	2gg\
.	.	16b-\	.	.	.	.	.	.	.	.	.	.	.	.	.	.
.	.	16b-\	8g/)	.	.	.	.	.	.	.	.	.	.	.	.	.
.	.	16b-\	.	.	.	.	.	.	.	.	.	.	.	.	.	.
4e-\	.	16b-\	8gg|\	.	.	.	.	.	.	.	.	4r	4r	.	.	.
.	.	16b-\	.	.	.	.	.	.	.	.	.	.	.	.	.	.
.	.	16b-\	8gg|\J	.	.	.	.	.	.	.	.	.	.	.	.	.
.	.	16b-\JJ	.	.	.	.	.	.	.	.	.	.	.	.	.	.
!	!	!	!LO:TX:t=P:problem=mixed beam	!	!	!	!	!	!	!	!	!	!	!	!	!
4Bn\	6 5	16a/LL	(8g/L	4Bn\	-li	4f\	-li	4g\	-ri-	4dd\	-li	2r	2r	.	2dd\	2ff\
.	.	16a/	.	.	.	.	.	.	.	.	.	.	.	.	.	.
.	.	16a/	8ff\)	.	.	.	.	.	.	.	.	.	.	.	.	.
.	.	16a/	.	.	.	.	.	.	.	.	.	.	.	.	.	.
4BBn\	.	16a/	8ff|\	4B\	et	4f\	et	4g\	-a	4dd\	et	.	.	.	.	.
.	.	16a/	.	.	.	.	.	.	.	.	.	.	.	.	.	.
.	.	16a/	8ff|\J	.	.	.	.	.	.	.	.	.	.	.	.	.
.	.	16a/JJ	.	.	.	.	.	.	.	.	.	.	.	.	.	.
=14	=14	=14	=14	=14	=14	=14	=14	=14	=14	=14	=14	=14	=14	=14	=14	=14
!	!	!	!LO:TX:t=P:problem=mixed beam	!	!	!	!	!	!	!	!	!	!	!	!	!
4C/	x -	16g/LL	8ee-\L	2c\	ter-	2e-\	ter-	2g\	tu-	2cc\	ter-	2r	2r	.	1cc	1ee-
.	.	16g/	.	.	.	.	.	.	.	.	.	.	.	.	.	.
.	.	16g/	8e-/	.	.	.	.	.	.	.	.	.	.	.	.	.
.	.	16g/	.	.	.	.	.	.	.	.	.	.	.	.	.	.
4c\	.	16g/	8ee-\	.	.	.	.	.	.	.	.	.	.	.	.	.
.	.	16g/	.	.	.	.	.	.	.	.	.	.	.	.	.	.
.	.	16g/	8ee-\J	.	.	.	.	.	.	.	.	.	.	.	.	.
.	.	16g/JJ	.	.	.	.	.	.	.	.	.	.	.	.	.	.
!	!	!	!LO:LB:g=original	!	!	!	!	!	!	!	!	!	!	!	!	!
!	!	!	!LO:TX:t=P:problem=mixed beam	!	!	!	!	!	!	!	!	!	!	!	!	!
4A\	6 5	16f/LL	8ee-\L	2A\	.	2c\	-ra	2f\	.	2ee-\	.	2g/	2cc\	.	.	.
.	.	16f/	.	.	.	.	.	.	.	.	.	.	.	.	.	.
.	.	16f/	8f/	.	.	.	.	.	.	.	.	.	.	.	.	.
.	.	16f/	.	.	.	.	.	.	.	.	.	.	.	.	.	.
4AA/	.	16f/	8ee-\	.	.	.	.	.	.	.	.	.	.	.	.	.
.	.	16f/	.	.	.	.	.	.	.	.	.	.	.	.	.	.
.	.	16f/	8ee-\J	.	.	.	.	.	.	.	.	.	.	.	.	.
.	.	16f/JJ	.	.	.	.	.	.	.	.	.	.	.	.	.	.
*	*	*Xtremolo	*	*	*	*	*	*	*	*	*	*	*	*	*	*
=15	=15	=15	=15	=15	=15	=15	=15	=15	=15	=15	=15	=15	=15	=15	=15	=15
!	!	!	!	!	!	!	!	!LO:LB:g=original	!	!LO:LB:g=original	!	!	!	!	!	!
4BB-/	.	4f/	16dd\LL	4B-\	-ra	4B-\	.	4f\	-a	4dd\	-ra	4b-\	4dd\	.	4b-\	4dd\
.	.	.	16cc\	.	.	.	.	.	.	.	.	.	.	.	.	.
.	.	.	16b-\	.	.	.	.	.	.	.	.	.	.	.	.	.
.	.	.	16a\JJ	.	.	.	.	.	.	.	.	.	.	.	.	.
4r	.	4r	16b-\LL	4r	.	4r	.	4r	.	4r	.	4r	4r	.	4r	4r
.	.	.	16cc\	.	.	.	.	.	.	.	.	.	.	.	.	.
.	.	.	16dd\	.	.	.	.	.	.	.	.	.	.	.	.	.
.	.	.	16ee-\JJ	.	.	.	.	.	.	.	.	.	.	.	.	.
*	*	*	*tremolo	*	*	*	*	*	*	*	*	*	*	*	*	*
2r	.	2r	8ff\L	2r	.	2r	.	2r	.	2r	.	2r	2r	.	2r	2r
.	.	.	8ff\	.	.	.	.	.	.	.	.	.	.	.	.	.
.	.	.	8ff\	.	.	.	.	.	.	.	.	.	.	.	.	.
.	.	.	8ff\J	.	.	.	.	.	.	.	.	.	.	.	.	.
=	=	=	=	=	=	=	=	=	=	=	=	=	=	=	=	=
!LO:TX:t=P:problem=zbędna powtórka taktu cor 1	!	!LO:TX:t=P:problem=zbędna powtórka taktu cor 1	!LO:TX:t=P:problem=zbędna powtórka taktu cor 1	!LO:TX:t=P:problem=zbędna powtórka taktu cor 1	!	!LO:TX:t=P:problem=zbędna powtórka taktu cor 1	!	!LO:TX:t=P:problem=zbędna powtórka taktu cor 1	!	!LO:TX:t=P:problem=zbędna powtórka taktu cor 1	!	!LO:TX:t=P:problem=zbędna powtórka taktu cor 1	!LO:TX:t=P:problem=zbędna powtórka taktu	!	!LO:TX:t=P:problem=zbędna powtórka taktu cor 1	!LO:TX:t=P:problem=zbędna powtórka taktu cor 1
1ryy	.	1ryy	1ryy	1ryy	.	1ryy	.	1ryy	.	1ryy	.	1ryy	4dd\	.	1ryy	1ryy
.	.	.	.	.	.	.	.	.	.	.	.	.	4r	.	.	.
.	.	.	.	.	.	.	.	.	.	.	.	.	2r	.	.	.
=16	=16	=16	=16	=16	=16	=16	=16	=16	=16	=16	=16	=16	=16	=16	=16	=16
*	*	*	*^	*	*	*	*	*	*	*	*	*	*	*	*	*
*	*	*tremolo	*	*	*	*	*	*	*	*ij	*	*	*	*	*	*	*
!	!	!LO:LB:g=original	!	!	!	!	!	!	!	!	!	!	!LO:LB:g=original	!	!	!	!
8F\L	7 5	16f\LL	16ff/LL	16ee-\LL	8F\L	Glo-	4c\	glo-	4f\	glo-	4ee-\	glo-	1f	1cc	.	1ee-	1ff
.	.	16cc\	16ff/	16ee-\	.	.	.	.	.	.	.	.	.	.	.	.	.
8G\	.	16f\	16ff/	16ee-\	8G\J	.	.	.	.	.	.	.	.	.	.	.	.
.	.	16cc\	16ff/	16ee-\	.	.	.	.	.	.	.	.	.	.	.	.	.
8A\	.	16f\	16ff/	16ee-\	8A\	-ri-	8c\	-ri-	8f\	-ri-	8ee-\	-ri-	.	.	.	.	.
.	.	16cc\	16ff/	16ee-\	.	.	.	.	.	.	.	.	.	.	.	.	.
8B-\J	.	16f\	16ff/	16ee-\	8B-\	-a	8c\	-a	8f\	-a	8ee-\	-a	.	.	.	.	.
.	.	16cc\JJ	16ff/JJ	16ee-\JJ	.	.	.	.	.	.	.	.	.	.	.	.	.
*	*	*rep	*	*	*	*	*	*	*	*	*	*	*	*	*	*	*
!LO:LB:g=original	!	!	!	!	!	!	!	!	!	!	!	!	!	!	!	!	!
8c\L	x _	16f\LL	16ff/LL	16ee-\LL	8c\L	tu-	2c\	tu-	2f\	tu-	2ee-\	tu-	.	.	.	.	.
.	.	16cc\	16ff/	16ee-\	.	.	.	.	.	.	.	.	.	.	.	.	.
8A\	x x	16f\	16ff/	16ee-\	8A\	.	.	.	.	.	.	.	.	.	.	.	.
.	.	16cc\	16ff/	16ee-\	.	.	.	.	.	.	.	.	.	.	.	.	.
8G\	.	16f\	16ff/	16ee-\	8G\	.	.	.	.	.	.	.	.	.	.	.	.
.	.	16cc\	16ff/	16ee-\	.	.	.	.	.	.	.	.	.	.	.	.	.
8F\J	.	16f\	16ff/	16ee-\	8F\J	.	.	.	.	.	.	.	.	.	.	.	.
.	.	16cc\JJ	16ff/JJ	16ee-\JJ	.	.	.	.	.	.	.	.	.	.	.	.	.
*	*	*Xrep	*	*	*	*	*	*	*	*	*	*	*	*	*	*	*
*	*	*	*v	*v	*	*	*	*	*	*	*	*	*	*	*	*	*
=17	=17	=17	=17	=17	=17	=17	=17	=17	=17	=17	=17	=17	=17	=17	=17	=17
*	*	*Xtremolo	*Xtremolo	*	*	*	*	*	*	*	*	*	*	*	*	*
4B-\	.	4f\ 4b-	16ff\LL	4B-\	-a	4B-\	-a	4f\	-a	4dd\	-a	4b-\	4dd\	.	4dd\	4ff\
*	*	*	*	*	*	*	*	*	*Xij	*	*	*	*	*	*	*
.	.	.	16ee-\	.	.	.	.	.	.	.	.	.	.	.	.	.
.	.	.	16dd\	.	.	.	.	.	.	.	.	.	.	.	.	.
.	.	.	16cc\JJ	.	.	.	.	.	.	.	.	.	.	.	.	.
4BB-/	.	4r	16b-\LL	4r	.	4r	.	4r	.	4r	.	4r	4r	.	4r	4r
.	.	.	16cc\	.	.	.	.	.	.	.	.	.	.	.	.	.
.	.	.	16dd\	.	.	.	.	.	.	.	.	.	.	.	.	.
.	.	.	16ee-\JJ	.	.	.	.	.	.	.	.	.	.	.	.	.
*	*	*	*tremolo	*	*	*	*	*	*	*	*	*	*	*	*	*
2r	.	2r	8ff\L	2r	.	2r	.	2r	.	2r	.	2r	2r	.	2r	2r
.	.	.	8ff\	.	.	.	.	.	.	.	.	.	.	.	.	.
.	.	.	8ff\	.	.	.	.	.	.	.	.	.	.	.	.	.
.	.	.	8ff\J	.	.	.	.	.	.	.	.	.	.	.	.	.
=18	=18	=18	=18	=18	=18	=18	=18	=18	=18	=18	=18	=18	=18	=18	=18	=18
*	*	*	*^	*	*	*	*	*	*	*	*	*	*	*	*	*
*	*	*tremolo	*	*	*	*	*	*	*	*	*	*	*	*	*	*	*
!	!	!	!	!	!LO:LB:g=original	!	!	!	!	!	!	!	!	!	!	!	!
8F\L	7 5	16f\LL	16ff/LL	16ee-\LL	8F\L	o-	2c\	O-	2f\	o-	2ee-\	O-	1f	1cc	.	1ee-	1ff
.	.	16cc\	16ff/	16ee-\	.	.	.	.	.	.	.	.	.	.	.	.	.
8G\	.	16f\	16ff/	16ee-\	8G\	.	.	.	.	.	.	.	.	.	.	.	.
.	.	16cc\	16ff/	16ee-\	.	.	.	.	.	.	.	.	.	.	.	.	.
8A\	.	16f\	16ff/	16ee-\	8A\	.	.	.	.	.	.	.	.	.	.	.	.
.	.	16cc\	16ff/	16ee-\	.	.	.	.	.	.	.	.	.	.	.	.	.
8B-\J	.	16f\	16ff/	16ee-\	8B-\J	.	.	.	.	.	.	.	.	.	.	.	.
.	.	16cc\JJ	16ff/JJ	16ee-\JJ	.	.	.	.	.	.	.	.	.	.	.	.	.
*	*	*rep	*	*	*	*	*	*	*	*	*	*	*	*	*	*	*
8c\L	x _	16f\LL	16ff/LL	16ee-\LL	8c\L	.	2c\	-san-	2f\	-san-	2ee-\	-san-	.	.	.	.	.
.	.	16cc\	16ff/	16ee-\	.	.	.	.	.	.	.	.	.	.	.	.	.
8A\	x x	16f\	16ff/	16ee-\	8A\	.	.	.	.	.	.	.	.	.	.	.	.
.	.	16cc\	16ff/	16ee-\	.	.	.	.	.	.	.	.	.	.	.	.	.
8G\	.	16f\	16ff/	16ee-\	8G\	-san-	.	.	.	.	.	.	.	.	.	.	.
.	.	16cc\	16ff/	16ee-\	.	.	.	.	.	.	.	.	.	.	.	.	.
8F\J	.	16f\	16ff/	16ee-\	8F\J	.	.	.	.	.	.	.	.	.	.	.	.
.	.	16cc\JJ	16ff/JJ	16ee-\JJ	.	.	.	.	.	.	.	.	.	.	.	.	.
*	*	*Xrep	*	*	*	*	*	*	*	*	*	*	*	*	*	*	*
*	*	*	*v	*v	*	*	*	*	*	*	*	*	*	*	*	*	*
=19	=19	=19	=19	=19	=19	=19	=19	=19	=19	=19	=19	=19	=19	=19	=19	=19
*	*	*	*Xtremolo	*	*	*	*	*	*	*	*	*	*	*	*	*
!	!	!	!	!	!	!	!	!	!	!	!	!	!	!	!LO:LB:g=original	!
4B-\	.	16dd\LL	16dd\LL	4B-\	-na	4d\	-na	4f\	-na	4dd\	-na	4b-\	4dd\	.	4dd\	4ff\
.	.	16dd\	16bb-\	.	.	.	.	.	.	.	.	.	.	.	.	.
.	.	16dd\	16bb-\	.	.	.	.	.	.	.	.	.	.	.	.	.
.	.	16dd\JJ	16bb-\JJ	.	.	.	.	.	.	.	.	.	.	.	.	.
*	*	*	*tremolo	*	*	*	*	*	*	*	*	*	*	*	*	*
4D\	6 5-	16b-\LL	16aa-X\LL	4D\	in	4f\	in	4a-X\	in	2b-\	in	4b-\	4b-\	.	4ff\	4aa-X\
.	.	16b-\	16aa-\	.	.	.	.	.	.	.	.	.	.	.	.	.
.	.	16b-\	16aa-\	.	.	.	.	.	.	.	.	.	.	.	.	.
.	.	16b-\JJ	16aa-\JJ	.	.	.	.	.	.	.	.	.	.	.	.	.
!	!	!	!LO:LB:g=original	!	!	!	!	!	!	!	!	!	!	!	!	!
4E-\	.	16b-\LL	16gg\LL	4E-\	ex-	4e-\	ex-	4g\	ex-	.	.	4b-\	4b-\	.	4eeX\	4gg\
.	.	16b-\	16gg\	.	.	.	.	.	.	.	.	.	.	.	.	.
.	.	16b-\	16gg\	.	.	.	.	.	.	.	.	.	.	.	.	.
.	.	16b-\	16gg\JJ	.	.	.	.	.	.	.	.	.	.	.	.	.
4D\	6 5-	16b-\	16aa-\LL	4D\	-cel-	4f\	.	4a-\	-cel-	4b-\	ex-	4b-\	4b-\	.	4ff\	4aa-\
.	.	16b-\	16aa-\	.	.	.	.	.	.	.	.	.	.	.	.	.
.	.	16b-\	16aa-\	.	.	.	.	.	.	.	.	.	.	.	.	.
.	.	16b-\JJ	16aa-\JJ	.	.	.	.	.	.	.	.	.	.	.	.	.
=20	=20	=20	=20	=20	=20	=20	=20	=20	=20	=20	=20	=20	=20	=20	=20	=20
!	!	!	!	!	!	!	!	!	!	!	!	!	!	!	!	!LO:LB:g=original
4E-\	.	16b-\LL	16gg\LL	4E-\	-sis	2e-\	-cel-	4g\	.	4b-\	-cel-	4b-\	4b-\	.	2ee-X\	4gg\
.	.	16b-\	16gg\	.	.	.	.	.	.	.	.	.	.	.	.	.
.	.	16b-\	16gg\	.	.	.	.	.	.	.	.	.	.	.	.	.
.	.	16b-\JJ	16gg\JJ	.	.	.	.	.	.	.	.	.	.	.	.	.
4C\	x 6	16ee-\LL	16aan\LL	4C/	o-	.	.	4an\	-sis	4ee-\	.	4f/	4cc\	.	.	4aan\
.	.	16ee-\	16aa\	.	.	.	.	.	.	.	.	.	.	.	.	.
.	.	16ee-\	16aa\	.	.	.	.	.	.	.	.	.	.	.	.	.
.	.	16ee-\JJ	16aa\JJ	.	.	.	.	.	.	.	.	.	.	.	.	.
4D\	x 6	16dd\LL	16ccc\LL	4D\	-san-	4d\	-sis	4b-\	O-	4dd\	-sis	4b-\	4dd\	.	4dd\	2bb-\
.	.	16dd\	16ccc\	.	.	.	.	.	.	.	.	.	.	.	.	.
.	.	16dd\	16ccc\	.	.	.	.	.	.	.	.	.	.	.	.	.
.	.	16dd\JJ	16ccc\JJ	.	.	.	.	.	.	.	.	.	.	.	.	.
4G\	x 6	16b-\LL	16ee-\LL	4G\	.	4B-\	O-	4b-\	-san-	4ee-\	o-	4r	4ee-\	.	4ee-\	.
.	.	16b-\	16ee-\	.	.	.	.	.	.	.	.	.	.	.	.	.
.	.	16b-\	16ee-\	.	.	.	.	.	.	.	.	.	.	.	.	.
.	.	16b-\JJ	16ee-\JJ	.	.	.	.	.	.	.	.	.	.	.	.	.
=21	=21	=21	=21	=21	=21	=21	=21	=21	=21	=21	=21	=21	=21	=21	=21	=21
*tremolo	*	*	*	*	*	*	*	*	*	*	*	*	*	*	*	*
!	!	!	!	!	!	!LO:LB:g=original	!	!	!	!	!	!	!	!	!	!
8F\L	6 4	16f\LL	16dd\LL	2F\	.	2f\	-ſan-	2b-\	-na	2dd\	-san-	4b-\	4dd\	.	1dd	2bb-\
.	.	16dd\	16bb-\	.	.	.	.	.	.	.	.	.	.	.	.	.
8F\	.	16f\	16dd\	.	.	.	.	.	.	.	.	.	.	.	.	.
.	.	16dd\	16bb-\	.	.	.	.	.	.	.	.	.	.	.	.	.
8F\	.	16f\	16dd\	.	.	.	.	.	.	.	.	8b-\L	8dd\L	.	.	.
.	.	16dd\	16bb-\	.	.	.	.	.	.	.	.	.	.	.	.	.
8F\J	.	16f\	16dd\	.	.	.	.	.	.	.	.	8b-\J	8dd\J	.	.	.
.	.	16dd\JJ	16bb-\JJ	.	.	.	.	.	.	.	.	.	.	.	.	.
8F\L	_ _	16f\LL	16dd\LL	2F\	-na	2f\	-na	2b-\	in	2dd\	-na	4b-\	4dd\	.	.	2bb-\
.	.	16dd\	16bb-\	.	.	.	.	.	.	.	.	.	.	.	.	.
8F\	.	16f\	16dd\	.	.	.	.	.	.	.	.	.	.	.	.	.
.	.	16dd\	16bb-\	.	.	.	.	.	.	.	.	.	.	.	.	.
8F\	.	16f\	16dd\	.	.	.	.	.	.	.	.	4r	4r	.	.	.
.	.	16dd\	16bb-\	.	.	.	.	.	.	.	.	.	.	.	.	.
8F\J	.	16f\	16dd\	.	.	.	.	.	.	.	.	.	.	.	.	.
.	.	16dd\JJ	16bb-\JJ	.	.	.	.	.	.	.	.	.	.	.	.	.
=22	=22	=22	=22	=22	=22	=22	=22	=22	=22	=22	=22	=22	=22	=22	=22	=22
8FF/L	5 4	16f\LL	16cc\LL	2F\	in	2f\	in	2b-\	ex-	2cc\	in	4f/	4cc\	.	1cc	2bb-\
.	.	16cc\	16bb-\	.	.	.	.	.	.	.	.	.	.	.	.	.
8FF/	.	16f\	16cc\	.	.	.	.	.	.	.	.	.	.	.	.	.
.	.	16cc\	16bb-\	.	.	.	.	.	.	.	.	.	.	.	.	.
8FF/	.	16f\	16cc\	.	.	.	.	.	.	.	.	8f/L	8cc\L	.	.	.
.	.	16cc\	16bb-\	.	.	.	.	.	.	.	.	.	.	.	.	.
8FF/J	.	16f\	16cc\	.	.	.	.	.	.	.	.	8f/J	8cc\J	.	.	.
.	.	16cc\JJ	16bb-\JJ	.	.	.	.	.	.	.	.	.	.	.	.	.
*	*	*rep	*	*	*	*	*	*	*	*	*	*	*	*	*	*
8F\L	x 3	16f\LL	16cc\LL	2F\	ex-	2f\	ex-	2a\	.	2cc\	ex-	4f/	4cc\	.	.	2aa\
.	.	16cc\	16aa\	.	.	.	.	.	.	.	.	.	.	.	.	.
8F\	.	16f\	16cc\	.	.	.	.	.	.	.	.	.	.	.	.	.
.	.	16cc\	16aa\	.	.	.	.	.	.	.	.	.	.	.	.	.
8F\	.	16f\	16cc\	.	.	.	.	.	.	.	.	4r	4r	.	.	.
.	.	16cc\	16aa\	.	.	.	.	.	.	.	.	.	.	.	.	.
8F\J	.	16f\	16cc\	.	.	.	.	.	.	.	.	.	.	.	.	.
.	.	16cc\JJ	16aa\JJ	.	.	.	.	.	.	.	.	.	.	.	.	.
*	*	*Xrep	*Xtremolo	*	*	*	*	*	*	*	*	*	*	*	*	*
*Xtremolo	*	*Xtremolo	*	*	*	*	*	*	*	*	*	*	*	*	*	*
=23	=23	=23	=23	=23	=23	=23	=23	=23	=23	=23	=23	=23	=23	=23	=23	=23
!	!	!	!	!	!	!	!	!LO:LB:g=original	!	!	!	!	!	!	!	!
4B-\	.	4f/ 4dd	4dd\ 4bb-	4B-\	-cel-	2f\	-cel-	4b-\	-cel-	4dd\	-cel-	4b-\	4dd\	.	4dd\	4bb-\
4F\	.	4f/ 4cc	4cc\ 4aa	4F\	.	.	.	4a\	.	4cc\	.	4f/	4cc\	.	4cc\	4aa\
4BB-\	.	4f/ 4dd	4dd\ 4bb-	4BB-/	-sis	4f\	-sis	4b-\	-sis	4dd\	-sis.	4b-\	4dd\	.	4dd\	4bb-\
4r	.	4r	4r	4r	.	4r	.	4r	.	4r	.	4r	4r	.	4r	4r
==24	==24	==24	==24	==24	==24	==24	==24	==24	==24	==24	==24	==24	==24	==24	==24	==24
*-	*-	*-	*-	*-	*-	*-	*-	*-	*-	*-	*-	*-	*-	*-	*-	*-
!!!system-decoration: [(s1,s2)][(s3,s4)][(s5,s6,s7,s8)][(s9,s10)]s11
!!!RDF**kern: | = vertical stroke
!!!RDF**kern: > = above
!!!RDF**kern: < = below
!!!ENC: Mateusz Solarz
!!!END: 2021-11-23
!!!ENC: Krzysztof Stępień
!!!END: 2021-12-01
